TV/Source/FilmBox Plus - Dark.svg

<svg height="3.033889mm" viewBox="0 0 5.5865183 3.0338888" width="5.586518mm" xmlns="http://www.w3.org/2000/svg" xmlns:xlink="http://www.w3.org/1999/xlink"><clipPath id="a"><path d="m226.808 337.983h15.836v8.6h-15.836z"/></clipPath><g transform="translate(-81.117456 -87.596151)"><path d="m0 0v-7.623l8.573-.977-.95 8.6z" fill="#e2001a" transform="matrix(.35277777 0 0 -.35277777 83.67961 87.596151)"/><path d="m0 0v-1.021h-.34v-.44h.34v-1.081h.481v1.081h.82v.44h-.82v.581h1.02v.44z" transform="matrix(.35277777 0 0 -.35277777 81.2374 88.488961)"/><path d="m81.844425 89.385687h.183797v-.903817h-.183797z"/><g fill-rule="evenodd"><path d="m0 0h-1.781v2.562h.5v-2.122h.86v.341l.421.02z" transform="matrix(.35277777 0 0 -.35277777 82.734343 89.385615)"/><path d="m0 0h-.421v1.661l-.64-.56-.641.56.02-1.661h-.44v2.562l1.061-.941 1.061.941z" transform="matrix(.35277777 0 0 -.35277777 83.553528 89.385615)"/><path d="m0 0-.507-.897h-.559l.816 1.287-.794 1.249h.559l.485-.882.492.882h.559l-.786-1.249.808-1.287h-.559z" fill="#fff" transform="matrix(.35277777 0 0 -.35277777 85.876146 89.067975)"/></g><g clip-path="url(#a)" transform="matrix(.35277777 0 0 -.35277777 1.104529 209.86317)"><g transform="translate(235.634 342.6284)"><path d="m0 0h-.419v-.676h.419v-.448h-.889v1.124h-.347l.001.404h.346v1.029h.889v-.448h-.419v-.581h.419zm.015 0h-.015v.404h.015c.161 0 .308.147.308.294 0 .169-.154.287-.308.287h-.015v.448h.015c.624 0 .786-.5.786-.728 0-.117-.044-.33-.265-.47.236-.066.405-.301.405-.595 0-.177-.155-.764-.919-.764h-.022v.448h.015c.25 0 .404.161.404.331 0 .161-.118.345-.404.345" fill="#fff" fill-rule="evenodd"/></g><g transform="translate(238.09 341.9595)"><path d="m0 0c-.456 0-.823.368-.823.823 0 .456.367.823.823.823v.5h-.015c-.727 0-1.322-.588-1.322-1.323 0-.727.595-1.323 1.322-1.323h.015zm0 0v-.5c.728.008 1.315.596 1.315 1.323 0 .728-.587 1.316-1.315 1.323v-.5c.456 0 .823-.367.823-.823 0-.455-.367-.823-.823-.823" fill="#fff" fill-rule="evenodd"/></g><g transform="translate(228.2928 340.1049)"><path d="m0 0c .33 0 .51.162.51.423 0 .275-.198.422-.51.422h-.366v-.845zm0 .987c.415 0 .662-.211.662-.564 0-.351-.247-.565-.662-.565h-.366v-.675h-.147v1.804z"/></g><g transform="translate(230.4319 339.4298)"><path d="m0 0v-.142h-1.147v1.804h.147v-1.662z"/></g><g transform="translate(232.107 341.092)"><path d="m0 0v-1.072c0-.5-.258-.771-.724-.771-.472 0-.724.271-.724.771v1.072h.147v-1.077c0-.415.195-.624.577-.624.381 0 .575.209.575.624v1.077z"/></g><g transform="translate(233.5477 340.61)"><path d="m0 0c-.039.24-.237.384-.49.384-.265 0-.458-.126-.458-.338 0-.219.268-.288.512-.355.25-.07.609-.17.609-.534 0-.296-.258-.515-.647-.515s-.626.232-.665.528l.142.039c.02-.232.206-.431.528-.431.299 0 .487.16.487.377 0 .299-.34.355-.593.43-.206.059-.525.147-.525.456 0 .281.26.477.615.477.323 0 .575-.188.629-.479z"/></g></g></g></svg>

<?xml version="1.0" encoding="UTF-8" standalone="no"?>
<!-- Created with Inkscape (http://www.inkscape.org/) -->

<svg
   xmlns:dc="http://purl.org/dc/elements/1.1/"
   xmlns:cc="http://creativecommons.org/ns#"
   xmlns:rdf="http://www.w3.org/1999/02/22-rdf-syntax-ns#"
   xmlns:svg="http://www.w3.org/2000/svg"
   xmlns="http://www.w3.org/2000/svg"
   xmlns:sodipodi="http://sodipodi.sourceforge.net/DTD/sodipodi-0.dtd"
   xmlns:inkscape="http://www.inkscape.org/namespaces/inkscape"
   width="5.5865183mm"
   height="3.0338888mm"
   viewBox="0 0 5.5865183 3.0338888"
   version="1.1"
   id="svg59614"
   inkscape:version="0.92.0 r15299"
   sodipodi:docname="FilmBox Plus - Dark.svg">
  <defs
     id="defs59608">
    <clipPath
       clipPathUnits="userSpaceOnUse"
       id="clipPath1358">
      <path
         d="m 226.808,337.983 h 15.836 v 8.6 h -15.836 z"
         id="path1356"
         inkscape:connector-curvature="0" />
    </clipPath>
  </defs>
  <sodipodi:namedview
     id="base"
     pagecolor="#ffffff"
     bordercolor="#666666"
     borderopacity="1.0"
     inkscape:pageopacity="0.0"
     inkscape:pageshadow="2"
     inkscape:zoom="44.8"
     inkscape:cx="8.5674071"
     inkscape:cy="5.4521803"
     inkscape:document-units="mm"
     inkscape:current-layer="layer1"
     showgrid="false"
     fit-margin-top="0"
     fit-margin-left="0"
     fit-margin-right="0"
     fit-margin-bottom="0"
     inkscape:window-width="1920"
     inkscape:window-height="1017"
     inkscape:window-x="-8"
     inkscape:window-y="-8"
     inkscape:window-maximized="1" />
  <metadata
     id="metadata59611">
    <rdf:RDF>
      <cc:Work
         rdf:about="">
        <dc:format>image/svg+xml</dc:format>
        <dc:type
           rdf:resource="http://purl.org/dc/dcmitype/StillImage" />
        <dc:title></dc:title>
      </cc:Work>
    </rdf:RDF>
  </metadata>
  <g
     inkscape:label="Layer 1"
     inkscape:groupmode="layer"
     id="layer1"
     transform="translate(-81.117456,-87.596151)">
    <g
       id="g1330"
       transform="matrix(0.35277777,0,0,-0.35277777,83.67961,87.596151)">
      <path
         d="M 0,0 V -7.623 L 8.573,-8.6 7.623,0 Z"
         style="fill:#e2001a;fill-opacity:1;fill-rule:nonzero;stroke:none"
         id="path1332"
         inkscape:connector-curvature="0" />
    </g>
    <g
       id="g1334"
       transform="matrix(0.35277777,0,0,-0.35277777,81.2374,88.488961)">
      <path
         d="m 0,0 v -1.021 h -0.34 v -0.44 H 0 v -1.081 h 0.481 v 1.081 h 0.82 v 0.44 h -0.82 v 0.581 h 1.02 V 0 Z"
         style="fill:#000000;fill-opacity:1;fill-rule:nonzero;stroke:none"
         id="path1336"
         inkscape:connector-curvature="0" />
    </g>
    <path
       d="m 81.844425,89.385687 h 0.183797 V 88.48187 h -0.183797 z"
       style="fill:#000000;fill-opacity:1;fill-rule:nonzero;stroke:none;stroke-width:0.35277775"
       id="path1338"
       inkscape:connector-curvature="0" />
    <g
       id="g1340"
       transform="matrix(0.35277777,0,0,-0.35277777,82.734343,89.385615)">
      <path
         d="m 0,0 h -1.781 v 2.562 h 0.5 V 0.44 h 0.86 V 0.781 L 0,0.801 Z"
         style="fill:#000000;fill-opacity:1;fill-rule:evenodd;stroke:none"
         id="path1342"
         inkscape:connector-curvature="0" />
    </g>
    <g
       id="g1344"
       transform="matrix(0.35277777,0,0,-0.35277777,83.553528,89.385615)">
      <path
         d="M 0,0 H -0.421 V 1.661 L -1.061,1.101 -1.702,1.661 -1.682,0 h -0.44 V 2.562 L -1.061,1.621 0,2.562 Z"
         style="fill:#000000;fill-opacity:1;fill-rule:evenodd;stroke:none"
         id="path1346"
         inkscape:connector-curvature="0" />
    </g>
    <g
       id="g1348"
       transform="matrix(0.35277777,0,0,-0.35277777,85.876146,89.067975)">
      <path
         d="M 0,0 -0.507,-0.897 H -1.066 L -0.25,0.39 -1.044,1.639 h 0.559 L 0,0.757 0.492,1.639 H 1.051 L 0.265,0.39 1.073,-0.897 H 0.514 Z"
         style="fill:#ffffff;fill-opacity:1;fill-rule:evenodd;stroke:none"
         id="path1350"
         inkscape:connector-curvature="0" />
    </g>
    <g
       transform="matrix(0.35277777,0,0,-0.35277777,1.1045292,209.86317)"
       id="g1352">
      <g
         id="g1354"
         clip-path="url(#clipPath1358)">
        <g
           id="g1360"
           transform="translate(235.634,342.6284)">
          <path
             d="M 0,0 H -0.419 V -0.676 H 0 V -1.124 H -0.889 V 0 h -0.347 l 10e-4,0.404 h 0.346 V 1.433 H 0 V 0.985 H -0.419 V 0.404 H 0 Z M 0.015,0 H 0 v 0.404 h 0.015 c 0.161,0 0.308,0.147 0.308,0.294 0,0.169 -0.154,0.287 -0.308,0.287 H 0 v 0.448 h 0.015 c 0.624,0 0.786,-0.5 0.786,-0.728 0,-0.117 -0.044,-0.33 -0.265,-0.47 0.236,-0.066 0.405,-0.301 0.405,-0.595 0,-0.177 -0.155,-0.764 -0.919,-0.764 H 0 v 0.448 h 0.015 c 0.25,0 0.404,0.161 0.404,0.331 C 0.419,-0.184 0.301,0 0.015,0"
             style="fill:#ffffff;fill-opacity:1;fill-rule:evenodd;stroke:none"
             id="path1362"
             inkscape:connector-curvature="0" />
        </g>
        <g
           id="g1364"
           transform="translate(238.09,341.9595)">
          <path
             d="m 0,0 c -0.456,0 -0.823,0.368 -0.823,0.823 0,0.456 0.367,0.823 0.823,0.823 v 0.5 h -0.015 c -0.727,0 -1.322,-0.588 -1.322,-1.323 0,-0.727 0.595,-1.323 1.322,-1.323 H 0 Z M 0,0 V -0.5 C 0.728,-0.492 1.315,0.096 1.315,0.823 1.315,1.551 0.728,2.139 0,2.146 v -0.5 C 0.456,1.646 0.823,1.279 0.823,0.823 0.823,0.368 0.456,0 0,0"
             style="fill:#ffffff;fill-opacity:1;fill-rule:evenodd;stroke:none"
             id="path1366"
             inkscape:connector-curvature="0" />
        </g>
        <g
           id="g1368"
           transform="translate(228.2928,340.1049)">
          <path
             d="M 0,0 C 0.33,0 0.51,0.162 0.51,0.423 0.51,0.698 0.312,0.845 0,0.845 H -0.366 V 0 Z M 0,0.987 C 0.415,0.987 0.662,0.776 0.662,0.423 0.662,0.072 0.415,-0.142 0,-0.142 H -0.366 V -0.817 H -0.513 V 0.987 H 0"
             style="fill:#000000;fill-opacity:1;fill-rule:nonzero;stroke:none"
             id="path1370"
             inkscape:connector-curvature="0" />
        </g>
        <g
           id="g1372"
           transform="translate(230.4319,339.4298)">
          <path
             d="M 0,0 V -0.142 H -1.147 V 1.662 H -1 V 0 Z"
             style="fill:#000000;fill-opacity:1;fill-rule:nonzero;stroke:none"
             id="path1374"
             inkscape:connector-curvature="0" />
        </g>
        <g
           id="g1376"
           transform="translate(232.107,341.092)">
          <path
             d="m 0,0 v -1.072 c 0,-0.5 -0.258,-0.771 -0.724,-0.771 -0.472,0 -0.724,0.271 -0.724,0.771 V 0 h 0.147 v -1.077 c 0,-0.415 0.195,-0.624 0.577,-0.624 0.381,0 0.575,0.209 0.575,0.624 V 0 H 0"
             style="fill:#000000;fill-opacity:1;fill-rule:nonzero;stroke:none"
             id="path1378"
             inkscape:connector-curvature="0" />
        </g>
        <g
           id="g1380"
           transform="translate(233.5477,340.61)">
          <path
             d="m 0,0 c -0.039,0.24 -0.237,0.384 -0.49,0.384 -0.265,0 -0.458,-0.126 -0.458,-0.338 0,-0.219 0.268,-0.288 0.512,-0.355 0.25,-0.07 0.609,-0.17 0.609,-0.534 0,-0.296 -0.258,-0.515 -0.647,-0.515 -0.389,0 -0.626,0.232 -0.665,0.528 l 0.142,0.039 c 0.02,-0.232 0.206,-0.431 0.528,-0.431 0.299,0 0.487,0.16 0.487,0.377 0,0.299 -0.34,0.355 -0.593,0.43 -0.206,0.059 -0.525,0.147 -0.525,0.456 0,0.281 0.26,0.477 0.615,0.477 0.323,0 0.575,-0.188 0.629,-0.479 L 0,0"
             style="fill:#000000;fill-opacity:1;fill-rule:nonzero;stroke:none"
             id="path1382"
             inkscape:connector-curvature="0" />
        </g>
      </g>
    </g>
  </g>
</svg>
